governance/ui/public/councils/treasury.svg

<svg width="60" height="60" viewBox="0 0 60 60" fill="none" xmlns="http://www.w3.org/2000/svg">
<path d="M21.7195 50.8345H21.427C15.9793 48.5221 11.6126 44.2278 9.20947 38.8195L11.2795 37.942C13.4401 42.7892 17.3547 46.6394 22.237 48.7195H22.417L21.922 49.732L21.7195 50.8345Z" fill="#FFFFFF"/>
<path d="M38.662 50.6995L37.7845 48.6295C42.7198 46.5595 46.6351 42.62 48.6745 37.672L50.7895 38.4595V38.5945C49.6651 41.3116 48.0148 43.7797 45.9336 45.8571C43.8524 47.9345 41.3812 49.5801 38.662 50.6995Z" fill="#FFFFFF"/>
<path d="M11.4145 22.3945L9.32197 21.562C11.5279 16.0353 15.8194 11.5983 21.2695 9.20947L22.147 11.2795C17.2496 13.4326 13.3949 17.4247 11.4145 22.3945Z" fill="#FFFFFF"/>
<path d="M48.607 22.1695C47.5871 19.7315 46.0962 17.5186 44.2198 15.6577C42.3434 13.7967 40.1183 12.3242 37.672 11.3245L38.4595 9.20947C41.1926 10.3174 43.6793 11.9555 45.7762 14.0292C47.8731 16.103 49.5387 18.5713 50.677 21.292L48.607 22.1695Z" fill="#FFFFFF"/>
<path fill-rule="evenodd" clip-rule="evenodd" d="M29.9994 44.3772C26.6732 44.3755 23.4505 43.2207 20.8803 41.1093C18.3101 38.9979 16.5515 36.0607 15.9041 32.7981C15.2566 29.5355 15.7605 26.1494 17.3298 23.2166C18.899 20.2838 21.4366 17.9859 24.5102 16.7143C27.5838 15.4427 31.0031 15.2761 34.1857 16.243C37.3683 17.2098 40.1173 19.2503 41.9641 22.0166C43.811 24.783 44.6416 28.1041 44.3143 31.4142C43.9871 34.7243 42.5223 37.8185 40.1694 40.1697C38.8374 41.5096 37.2524 42.5715 35.5066 43.2938C33.7607 44.016 31.8888 44.3843 29.9994 44.3772ZM29.9994 17.8722C28.0056 17.8749 26.0432 18.3692 24.2859 19.3113C22.5287 20.2534 21.0308 21.6142 19.9249 23.2732C18.819 24.9323 18.1393 26.8384 17.9458 28.8229C17.7523 30.8073 18.0511 32.8088 18.8157 34.6503C19.5803 36.4917 20.7871 38.1162 22.3293 39.38C23.8715 40.6437 25.7015 41.5078 27.6572 41.8956C29.613 42.2834 31.6342 42.183 33.542 41.6033C35.4497 41.0236 37.1851 39.9825 38.5944 38.5722C40.2907 36.8748 41.4452 34.7123 41.912 32.3585C42.3787 30.0047 42.1367 27.5653 41.2164 25.3491C40.2962 23.1329 38.7392 21.2395 36.7425 19.9085C34.7458 18.5776 32.3991 17.8689 29.9994 17.8722Z" fill="#FFFFFF"/>
<path fill-rule="evenodd" clip-rule="evenodd" d="M21.3124 51.3971L21.207 51.3524C15.6281 48.9843 11.1562 44.5865 8.69526 39.048L8.46289 38.525L11.5682 37.2086L11.7931 37.7131C13.8804 42.3958 17.6496 46.1224 22.3524 48.1571H23.3179L22.4611 49.9097L22.1879 51.3971H21.3124ZM21.9218 49.7321L22.4168 48.7196H22.2368C22.1137 48.6671 21.9911 48.6135 21.8693 48.5588C17.1582 46.4447 13.3855 42.667 11.2793 37.9421L9.2093 38.8196C9.28555 38.9912 9.36379 39.1617 9.44397 39.331C11.8505 44.4136 16.0126 48.4608 21.1679 50.7228C21.1816 50.7289 21.1954 50.7349 21.2091 50.7409C21.2815 50.7725 21.354 50.8037 21.4268 50.8346H21.7193L21.9218 49.7321ZM37.046 48.3292L37.5667 48.1109C42.365 46.0984 46.1715 42.2683 48.1542 37.4577L48.3613 36.9553L51.3518 38.0688V38.7064L51.309 38.8097C50.1563 41.5952 48.4645 44.1256 46.3308 46.2553C44.1971 48.385 41.6636 50.0722 38.8759 51.2197L38.3612 51.4316L37.046 48.3292ZM8.59062 21.8766L8.79937 21.3536C11.06 15.6897 15.4581 11.1425 21.0435 8.69439L21.565 8.46582L22.8813 11.5711L22.3732 11.7945C17.6109 13.8882 13.8626 17.7702 11.9368 22.6028L11.7287 23.1251L8.59062 21.8766ZM48.306 22.908L48.0879 22.3867C47.0965 20.0169 45.6474 17.866 43.8235 16.0572C41.9997 14.2483 39.8369 12.817 37.459 11.8453L36.9545 11.6391L38.1341 8.4708L38.6706 8.68828C41.4725 9.82413 44.0219 11.5035 46.1716 13.6294C48.3213 15.7553 50.0288 18.2859 51.1957 21.075L51.4118 21.5915L48.306 22.908ZM50.7893 38.5946C49.6649 41.3117 48.0147 43.7798 45.9334 45.8572C43.985 47.802 41.6947 49.3685 39.1792 50.4789C39.1497 50.4919 39.1202 50.5049 39.0907 50.5178C38.9484 50.5798 38.8055 50.6404 38.6618 50.6996L37.7843 48.6296C37.8319 48.6096 37.8794 48.5895 37.9269 48.5691C42.795 46.4835 46.6546 42.5724 48.6743 37.6721L50.7893 38.4596V38.5946ZM22.1468 11.2796C17.2494 13.4327 13.3947 17.4248 11.4143 22.3946L9.3218 21.5621C9.3914 21.3877 9.46307 21.2144 9.5368 21.0422C11.7259 15.9297 15.7201 11.8001 20.7568 9.44183C20.9265 9.36239 21.0973 9.28496 21.2693 9.20958L22.1468 11.2796ZM48.6068 22.1696L50.6768 21.2921C50.6498 21.2275 50.6225 21.1631 50.5949 21.0988C50.5485 20.9908 50.5012 20.8831 50.4532 20.7759C49.3249 18.259 47.7395 15.9712 45.776 14.0294C43.8126 12.0877 41.5075 10.5279 38.9783 9.42764C38.8063 9.35282 38.6333 9.28012 38.4593 9.20958L37.6718 11.3246C40.1181 12.3243 42.3432 13.7968 44.2196 15.6578C46.051 17.4741 47.5152 19.6257 48.5326 21.9946C48.5576 22.0528 48.5823 22.1111 48.6068 22.1696ZM29.9982 44.9398C26.5421 44.9379 23.1936 43.7378 20.523 41.544C17.8523 39.3501 16.0249 36.298 15.3521 32.9077C14.6794 29.5174 15.203 25.9988 16.8336 22.9513C18.4643 19.9038 21.1012 17.516 24.295 16.1946C27.4888 14.8733 31.0419 14.7002 34.3491 15.7049C37.6562 16.7095 40.5126 18.8298 42.4318 21.7044C44.3509 24.579 45.214 28.0301 44.8739 31.4697C44.5339 34.9089 43.012 38.124 40.5675 40.567C39.1831 41.9594 37.5358 43.063 35.7214 43.8136C33.9071 44.5643 31.9617 44.9471 29.9982 44.9398ZM29.9993 44.3773C26.673 44.3756 23.4503 43.2208 20.8801 41.1094C18.3099 38.998 16.5513 36.0608 15.9039 32.7982C15.2565 29.5356 15.7603 26.1495 17.3296 23.2167C18.8988 20.2839 21.4364 17.986 24.51 16.7144C27.5836 15.4428 31.003 15.2762 34.1856 16.2431C37.3682 17.2099 40.1171 19.2504 41.964 22.0167C43.8108 24.7831 44.6414 28.1042 44.3142 31.4143C43.9869 34.7244 42.5221 37.8186 40.1693 40.1698C38.8372 41.5097 37.2522 42.5716 35.5064 43.2939C33.7605 44.0161 31.8886 44.3844 29.9993 44.3773ZM30 18.4348C28.0987 18.4374 26.2273 18.9088 24.5515 19.8072C22.8758 20.7055 21.4474 22.0032 20.3928 23.5853C19.3382 25.1674 18.69 26.9852 18.5055 28.8776C18.321 30.77 18.6059 32.6787 19.335 34.4347C20.0642 36.1907 21.215 37.7398 22.6856 38.945C24.1563 40.1501 25.9014 40.9741 27.7665 41.3439C29.6315 41.7137 31.559 41.618 33.3782 41.0652C35.1975 40.5124 36.8524 39.5196 38.1964 38.1747C39.8139 36.556 40.9149 34.4939 41.36 32.2492C41.8051 30.0046 41.5743 27.6783 40.6968 25.5649C39.8192 23.4515 38.3345 21.6459 36.4303 20.3767C34.5262 19.1075 32.2884 18.4317 30 18.4348ZM24.2857 19.3114C26.043 18.3693 28.0054 17.875 29.9993 17.8723C32.3989 17.869 34.7456 18.5777 36.7423 19.9086C38.7391 21.2396 40.2961 23.133 41.2163 25.3492C42.1365 27.5654 42.3785 30.0048 41.9118 32.3586C41.445 34.7124 40.2905 36.8749 38.5943 38.5723C37.1849 39.9826 35.4495 41.0237 33.5418 41.6034C31.6341 42.1831 29.6128 42.2835 27.6571 41.8957C25.7013 41.5079 23.8713 40.6438 22.3291 39.3801C20.7869 38.1163 19.5801 36.4918 18.8155 34.6504C18.0509 32.809 17.7522 30.8074 17.9456 28.823C18.1391 26.8385 18.8189 24.9324 19.9247 23.2733C21.0306 21.6143 22.5285 20.2535 24.2857 19.3114Z" fill="#FFFFFF"/>
<path d="M26.0927 27.0344C26.1586 27.0655 26.2172 27.11 26.2647 27.1653L27.3897 28.5603L28.8747 26.7603L28.1097 25.8153C27.863 25.5106 27.5508 25.2654 27.1964 25.0979C26.8419 24.9304 26.4543 24.8449 26.0622 24.8478H22.8447V26.9853H25.8822C25.9551 26.9867 26.0268 27.0034 26.0927 27.0344Z" fill="#FFFFFF"/>
<path d="M32.6803 25.0749C32.3222 25.2423 32.006 25.4876 31.7547 25.7928L28.4022 30.0003L26.2647 32.1603C26.2206 32.2193 26.1626 32.2666 26.0959 32.298C26.0292 32.3294 25.9558 32.3439 25.8822 32.3403H22.8447V34.5903H26.0397C26.4345 34.5901 26.8245 34.5034 27.1821 34.3363C27.5398 34.1691 27.8564 33.9256 28.1097 33.6228L29.9322 31.3728L31.7772 33.6228C32.0261 33.925 32.3387 34.1685 32.6927 34.3358C33.0466 34.503 33.4332 34.5899 33.8247 34.5903H37.0197V32.5878H33.9822C33.9144 32.5889 33.8472 32.5754 33.7851 32.5482C33.723 32.521 33.6674 32.4808 33.6222 32.4303L31.3722 29.7303L33.6222 27.0753C33.6653 27.0206 33.7199 26.9761 33.7821 26.945C33.8443 26.9139 33.9127 26.8969 33.9822 26.8953H37.0197V24.8253H33.8247C33.4294 24.8223 33.0384 24.9076 32.6803 25.0749Z" fill="#FFFFFF"/>
</svg>

<svg width="60" height="60" fill="none" viewBox="0 0 60 60" xmlns="http://www.w3.org/2000/svg">
  <path fill="#FFF" d="M21.72 50.835h-.293A23.36 23.36 0 0 1 9.209 38.819l2.07-.877a21.02 21.02 0 0 0 10.958 10.777h.18l-.495 1.013zm16.942-.135-.877-2.07a20.25 20.25 0 0 0 10.89-10.958l2.114.788v.134A22.32 22.32 0 0 1 38.662 50.7M11.415 22.395l-2.093-.833A22.66 22.66 0 0 1 21.27 9.209l.877 2.07a20.4 20.4 0 0 0-10.732 11.116m37.192-.225a20.1 20.1 0 0 0-10.935-10.846l.788-2.115a22.34 22.34 0 0 1 12.217 12.083z"/>
  <path fill="#FFF" fill-rule="evenodd" d="M30 44.377a14.377 14.377 0 1 1 10.17-4.207A14.26 14.26 0 0 1 30 44.377m0-26.505a12.127 12.127 0 1 0 .032 24.254A12.127 12.127 0 0 0 30 17.872" clip-rule="evenodd"/>
  <path fill="#FFF" fill-rule="evenodd" d="m21.312 51.397-.105-.045A23.92 23.92 0 0 1 8.695 39.048l-.232-.523 3.105-1.316.225.504a20.45 20.45 0 0 0 10.56 10.444h.965l-.857 1.753-.273 1.487zm.61-1.665.495-1.012h-.18l-.368-.161a21.02 21.02 0 0 1-10.59-10.617l-2.07.878q.115.257.235.511a23.36 23.36 0 0 0 11.724 11.392l.041.018.218.094h.292zm15.124-1.403.52-.218a19.7 19.7 0 0 0 10.588-10.653l.207-.503 2.99 1.114v.637l-.042.104a22.88 22.88 0 0 1-12.433 12.41l-.515.212zM8.591 21.877l.208-.523a23.22 23.22 0 0 1 12.245-12.66l.521-.228 1.316 3.105-.508.223a19.82 19.82 0 0 0-10.436 10.809l-.208.522zm39.715 1.031-.218-.521a19.53 19.53 0 0 0-10.629-10.542l-.505-.206 1.18-3.168.537.217a22.9 22.9 0 0 1 12.525 12.387l.216.517zm2.483 15.687A22.32 22.32 0 0 1 38.662 50.7l-.878-2.07.143-.06a20.25 20.25 0 0 0 10.747-10.898l2.115.788zM22.147 11.28a20.4 20.4 0 0 0-10.733 11.115l-2.092-.833A22.66 22.66 0 0 1 21.269 9.21zm26.46 10.89 2.07-.878a22 22 0 0 0-.224-.516A22.34 22.34 0 0 0 38.46 9.21l-.787 2.115A20.1 20.1 0 0 1 48.607 22.17M29.998 44.94a14.94 14.94 0 1 1 10.57-4.373 14.83 14.83 0 0 1-10.57 4.373m.001-.563a14.377 14.377 0 1 1 10.17-4.207A14.27 14.27 0 0 1 30 44.377m0-25.942a11.565 11.565 0 1 0 .032 23.13A11.565 11.565 0 0 0 30 18.435m-5.714.876a12.127 12.127 0 1 1 11.46 21.377 12.127 12.127 0 0 1-11.46-21.377" clip-rule="evenodd"/>
  <path fill="#FFF" d="M26.093 27.034a.5.5 0 0 1 .172.131l1.125 1.395 1.485-1.8-.765-.945a2.61 2.61 0 0 0-2.048-.967h-3.217v2.137h3.037a.5.5 0 0 1 .21.05m6.588-1.96a2.7 2.7 0 0 0-.925.718L28.402 30l-2.137 2.16a.45.45 0 0 1-.383.18h-3.037v2.25h3.195a2.7 2.7 0 0 0 2.07-.967l1.822-2.25 1.845 2.25a2.66 2.66 0 0 0 2.048.967h3.195v-2.002h-3.038a.47.47 0 0 1-.36-.158l-2.25-2.7 2.25-2.655a.47.47 0 0 1 .36-.18h3.038v-2.07h-3.195a2.7 2.7 0 0 0-1.145.25"/>
</svg>
